assets/icons/categorydark.svg

<svg width="24" height="24" viewBox="0 0 24 24" fill="none" xmlns="http://www.w3.org/2000/svg">
<path d="M22 13V9C22 4 20 2 15 2H9C4 2 2 4 2 9V15C2 20 4 22 9 22H14" stroke="#9AA3AF" stroke-width="1.5" stroke-linecap="round" stroke-linejoin="round"/>
<path d="M19 16V22L21 20" stroke="#9AA3AF" stroke-width="1.5" stroke-linecap="round" stroke-linejoin="round"/>
<path d="M19 22L17 20" stroke="#9AA3AF" stroke-width="1.5" stroke-linecap="round" stroke-linejoin="round"/>
<path d="M9.95039 6.25977L8.90039 15.7298" stroke="#9AA3AF" stroke-width="1.5" stroke-linecap="round" stroke-linejoin="round"/>
<path d="M13.1096 6.25977L12.0596 15.7298" stroke="#9AA3AF" stroke-width="1.5" stroke-linecap="round" stroke-linejoin="round"/>
<path d="M6.53027 9.41992H16.0003" stroke="#9AA3AF" stroke-width="1.5" stroke-linecap="round" stroke-linejoin="round"/>
<path d="M6 12.5801H15.47" stroke="#9AA3AF" stroke-width="1.5" stroke-linecap="round" stroke-linejoin="round"/>
</svg>

<svg width="24" height="24" viewBox="0 0 24 24" fill="none" xmlns="http://www.w3.org/2000/svg"><path d="M22 13V9c0-5-2-7-7-7H9C4 2 2 4 2 9v6c0 5 2 7 7 7h5" stroke="#9AA3AF" stroke-width="1.5" stroke-linecap="round" stroke-linejoin="round"/><path d="M19 16v6l2-2m-2 2-2-2M9.95 6.26 8.9 15.73m4.21-9.47-1.05 9.47M6.53 9.42H16M6 12.58h9.47" stroke="#9AA3AF" stroke-width="1.5" stroke-linecap="round" stroke-linejoin="round"/></svg>
